source/img/icon-lamp.svg

<svg fill="none" height="24" viewBox="0 0 24 24" width="24" xmlns="http://www.w3.org/2000/svg"><g fill="#2b2d3a"><path d="m13.7143 22.7143h-3.4286c-.79999 0-1.71427-.6857-1.71427-2.0571v-2.4c0-1.1429-.57143-2.1715-1.48572-2.9715-2.05714-1.6-3.08571-3.8857-3.08571-6.39997.11429-4.34287 3.65714-7.77144 7.8857-7.88573 2.1714 0 4.2286.8 5.7143 2.28572 1.4857 1.48571 2.4 3.54286 2.4 5.71429 0 2.39999-1.0286 4.68569-2.9714 6.17149-1.0286.8-1.6 2.0571-1.6 3.2v2.6285c0 .9143-.8 1.7143-1.7143 1.7143zm-1.7143-20.57144c-3.65714 0-6.74286 3.08572-6.85714 6.74287 0 2.17147.91428 4.22857 2.62857 5.48577 1.25714 1.0285 1.94286 2.4 1.94286 3.8857v2.4c0 .2285 0 .9143.57141.9143h3.4286c.3428 0 .5714-.2286.5714-.5715v-2.6285c0-1.4858.8-3.0858 2.0572-4.1143 1.6-1.2572 2.5142-3.2 2.5142-5.25719 0-1.82857-.6857-3.54286-2.0571-4.91429-1.2571-1.25715-2.9714-1.94286-4.8-1.94286z"/><path d="m14.8572 19.2857h-5.71424c-.34286 0-.57143-.2286-.57143-.5715 0-.3428.22857-.5714.57143-.5714h5.71424c.3429 0 .5715.2286.5715.5714 0 .3429-.2286.5715-.5715.5715z"/></g></svg>

<svg width="24" height="24" viewBox="0 0 24 24" fill="none" xmlns="http://www.w3.org/2000/svg">
<path d="M13.7143 22.7143H10.2857C9.48571 22.7143 8.57143 22.0286 8.57143 20.6572V18.2572C8.57143 17.1143 8 16.0857 7.08571 15.2857C5.02857 13.6857 4 11.4 4 8.88573C4.11429 4.54286 7.65714 1.11429 11.8857 1C14.0571 1 16.1143 1.8 17.6 3.28572C19.0857 4.77143 20 6.82858 20 9.00001C20 11.4 18.9714 13.6857 17.0286 15.1715C16 15.9715 15.4286 17.2286 15.4286 18.3715V21C15.4286 21.9143 14.6286 22.7143 13.7143 22.7143ZM12 2.14286C8.34286 2.14286 5.25714 5.22858 5.14286 8.88573C5.14286 11.0572 6.05714 13.1143 7.77143 14.3715C9.02857 15.4 9.71429 16.7715 9.71429 18.2572V20.6572C9.71429 20.8857 9.71429 21.5715 10.2857 21.5715H13.7143C14.0571 21.5715 14.2857 21.3429 14.2857 21V18.3715C14.2857 16.8857 15.0857 15.2857 16.3429 14.2572C17.9429 13 18.8571 11.0572 18.8571 9.00001C18.8571 7.17144 18.1714 5.45715 16.8 4.08572C15.5429 2.82857 13.8286 2.14286 12 2.14286Z" fill="#2B2D3A"/>
<path d="M14.8572 19.2857H9.14296C8.8001 19.2857 8.57153 19.0571 8.57153 18.7142C8.57153 18.3714 8.8001 18.1428 9.14296 18.1428H14.8572C15.2001 18.1428 15.4287 18.3714 15.4287 18.7142C15.4287 19.0571 15.2001 19.2857 14.8572 19.2857Z" fill="#2B2D3A"/>
</svg>
